!! J.S. Bach "Gigue" from Partita No. 3, for solo violin, BWV 1006.
!! From 'Neue Ausgabe Saemtlicher Werke' Serie VI: Kammermusikwerke,
!! Band 1 ('Werke fuer Violine') Baerenreiter Kassel (Basel) 1958; p.62
!! This file has been error-checked using the double-entry method.
!! NOTE:  The repeats at bar 16 and at the end of the work have been
!!        expanded in this encoding.
**kern
*M6/8
8bb
=1
{8gg#
8ee}
8b
16e
16f#
16g#
16a
16b
16cc#
=2
{16dd#
16ee
8ff#}
8ff#
{16a
16g#
8a}
8ff#
=3
16B
16c#
16d#
16e
16f#
16g#
16a
16g#
16a
16cc#
16b
16a
=4
16g#
16f#
16g#
16a
16b
16g#
8.e
16f#
16g#
16a
=5
16b
16g#
16e
16g#
16b
16ddn
16cc#
16ee
16aa
16ee
16cc#
16a
=6
16b
16g#
16e
16g#
16b
16ddn
16cc#
16ee
16aa
16ee
16cc#
16a
=7
16dd#
16ff#
16aa
16ff#
16dd#
16b
16ee
16aa
16gg#
16ff#
16gg#
16ee
=8
{16b
16dd#
8ff#}
8aa
16gg#
16ff#
16ee
16ff#
16gg#
16ee
=9
{16a#
16c#
8ee}
8gg#
16ff#
16ee
16dd#
16cc#
16b
16an
=10
{16g#
16b
8dd#}
8ff#
16ee
16dd#
16cc#
16dd#
16ee
16cc#
=11
16f#
16cc#
16b
16cc#
16dd#
16b
16e
16g#
16cc#
16dd#
16ee
16ff#
=12
16gg#
16ff#
16ee
16dd#
16cc#
16ee
{16bb
16aa#
16gg#
16ff#
16ee
16dd#}
=13
{16ee
16dd#
8ee}
8ee
16c#
16e
16g#
16e
16c#
16e
=14
{16a#
16cc#
8ee}
8ee
16A#
16c#
16f#
16c#
16A#
16c#
=15
16f#
{16ee
16dd#
16cc#
16b
16a#}
8ff#
16ee
16dd#
16cc#
16dd#
=16
8b
16f#
16e
16d#
16c#
4B
8bb
=17
{8gg#
8ee}
8b
16e
16f#
16g#
16a
16b
16cc#
=18
{16dd#
16ee
8ff#}
8ff#
{16a
16g#
8a}
8ff#
=19
16B
16c#
16d#
16e
16f#
16g#
16a
16g#
16a
16cc#
16b
16a
=20
16g#
16f#
16g#
16a
16b
16g#
8.e
16f#
16g#
16a
=21
16b
16g#
16e
16g#
16b
16ddn
16cc#
16ee
16aa
16ee
16cc#
16a
=22
16b
16g#
16e
16g#
16b
16ddn
16cc#
16ee
16aa
16ee
16cc#
16a
=23
16dd#
16ff#
16aa
16ff#
16dd#
16b
16ee
16aa
16gg#
16ff#
16gg#
16ee
=24
{16b
16dd#
8ff#}
8aa
16gg#
16ff#
16ee
16ff#
16gg#
16ee
=25
{16a#
16c#
8ee}
8gg#
16ff#
16ee
16dd#
16cc#
16b
16an
=26
{16g#
16b
8dd#}
8ff#
16ee
16dd#
16cc#
16dd#
16ee
16cc#
=27
16f#
16cc#
16b
16cc#
16dd#
16b
16e
16g#
16cc#
16dd#
16ee
16ff#
=28
16gg#
16ff#
16ee
16dd#
16cc#
16ee
{16bb
16aa#
16gg#
16ff#
16ee
16dd#}
=29
{16ee
16dd#
8ee}
8ee
16c#
16e
16g#
16e
16c#
16e
=30
{16a#
16cc#
8ee}
8ee
16A#
16c#
16f#
16c#
16A#
16c#
=31
16f#
{16ee
16dd#
16cc#
16b
16a#}
8ff#
16ee
16dd#
16cc#
16dd#
=32
8b
16f#
16e
16d#
16c#
4B
8ff#
=33
8dd#
8b
16f#
16g#
16a
16b
16cc#
16dd#
16ee
16ff#
=34
{16gg#
16aa
8bb}
8bb
{16ddn
16cc#
8dd}
8bb
=35
16e#
16f#
16g#
16a
16b
16ddn
16cc#
16dd#
16ee#
16ff#
16gg#
16bb
=36
{16aa
16gg#}
{16bb
16aa}
{16gg#
16ff#}
8gg#
8cc#
8gg#
=37
16aa
16ff#
16cc#
16ff#
16aa
16ff#
16ddn
16b
16f#
16b
16dd
16b
=38
16gg#
16ee
16b
16ee
16gg#
16ee
16cc#
16a
16e
16a
16cc#
16a
=39
16ff#
16ee
16ff#
16gg#
16aa
16bb
8cc#
16ddn
16cc#
16b
16cc#
=40
8a
16e
16dn
16c#
16B
4A
8cc#
=41
16d#
16f#
16a
16cc#
16b
16a
16g#
16b
16dd#
16ff#
16ee
16dd#
=42
16c#
16e
16g#
16b
16a
16g#
16f#
16a
16cc#
16ee
16dd#
16cc#
=43
16b
16dd#
16ff#
16aa
16gg#
16ff#
8bb
16aa
16gg#
16ff#
16ee
=44
16dd#
16cc#
16dd#
16ee
16ff#
16dd#
{16b
16cc#
16dd#
16ee
16ff#
16gg#}
=45
{16aa
16gg#
8aa}
8aa
16f#
16a
16cc#
16a
16f#
16a
=46
{16dd#
16ff#
8aa}
8aa
16d#
16f#
16b
16f#
16d#
16f#
=47
16B
{16aa
16gg#
16ff#
16ee
16dd#}
8bb
16aa
16gg#
16ff#
16gg#
=48
8ee
16b
16a
16g#
16f#
4e
8ff#
=49
8dd#
8b
16f#
16g#
16a
16b
16cc#
16dd#
16ee
16ff#
=50
{16gg#
16aa
8bb}
8bb
{16ddn
16cc#
8dd}
8bb
=51
16e#
16f#
16g#
16a
16b
16ddn
16cc#
16dd#
16ee#
16ff#
16gg#
16bb
=52
{16aa
16gg#}
{16bb
16aa}
{16gg#
16ff#}
8gg#
8cc#
8gg#
=53
16aa
16ff#
16cc#
16ff#
16aa
16ff#
16ddn
16b
16f#
16b
16dd
16b
=54
16gg#
16ee
16b
16ee
16gg#
16ee
16cc#
16a
16e
16a
16cc#
16a
=55
16ff#
16ee
16ff#
16gg#
16aa
16bb
8cc#
16ddn
16cc#
16b
16cc#
=56
8a
16e
16dn
16c#
16B
4A
8cc#
=57
16d#
16f#
16a
16cc#
16b
16a
16g#
16b
16dd#
16ff#
16ee
16dd#
=58
16c#
16e
16g#
16b
16a
16g#
16f#
16a
16cc#
16ee
16dd#
16cc#
=59
16b
16dd#
16ff#
16aa
16gg#
16ff#
8bb
16aa
16gg#
16ff#
16ee
=60
16dd#
16cc#
16dd#
16ee
16ff#
16dd#
{16b
16cc#
16dd#
16ee
16ff#
16gg#}
=61
{16aa
16gg#
8aa}
8aa
16f#
16a
16cc#
16a
16f#
16a
=62
{16dd#
16ff#
8aa}
8aa
16d#
16f#
16b
16f#
16d#
16f#
=63
16B
{16aa
16gg#
16ff#
16ee
16dd#}
8bb
16aa
16gg#
16ff#
16gg#
=64
8ee
16b
16a
16g#
16f#
4e
==
*-
